!!!COM: Music21
!!!OTL: march_Dornoch-Links
!!!OMV: march_Dornoch-Links
**kern
*clefG2
*k[f#c#g#]
*A:
*M4/4
=1
8aaL
8ff#J
=
8eeL
8aJ
8aL
8bJ
4cc#
8bL
8aJ
=
4ee
4a
8aL
8aaJ
8aaL
8ff#J
=
8eeL
8aJ
8aL
8bJ
4cc#
8bL
8aJ
=
4cc#
4b
4b
8aL
8cc#J
=
8eeL
8aJ
8aL
8bJ
4.cc#
8b
!!linebreak:original
=
8aL
8bJ
8cc#L
8eeJ
4.aa
8ff#
=
4.ee
8ff#
8eeL
8cc#J
8aL
8cc#J
=
4b
4a
4a
4ryy
=||
*M4/4
8aaL
8ff#J
=
8eeL
8aJ
8aL
8bJ
4cc#
8bL
8aJ
=
4ee
4a
8aL
8aaJ
8aaL
8ff#J
!!linebreak:original
=
8eeL
8aJ
8aL
8bJ
4cc#
8bL
8aJ
=
4cc#
4b
4b
8aL
8cc#J
=
8eeL
8aJ
8aL
8bJ
4.cc#
8b
=
8aL
8bJ
8cc#L
8eeJ
4.aa
8ff#
=
4.ee
8ff#
8eeL
8cc#J
8aL
8cc#J
=
4b
4a
4a
4ryy
=||
8cc#L
8eeJ
2.ryy
!!linebreak:original
=
4.aa
8aa
8aaL
8ff#J
8eeL
8aaJ
=
4.ff#
8ee
8ff#L
8aaJ
8aaL
8ff#J
=
4.ee
8ff#
8eeL
8cc#J
8aL
8bJ
=
4cc#
4b
4b
8cc#L
8eeJ
=
4.aa
8aa
8aaL
8ff#J
8eeL
8aaJ
=
8ff#L
8eeJ
8cc#L
8eeJ
8ff#L
8aaJ
8aaL
8ff#J
!!linebreak:original
=
4.ee
8ff#
8eeL
8cc#J
8aL
8cc#J
=
4b
4a
4a
4ryy
=||
8cc#L
8eeJ
2.ryy
=
4.aa
8aa
8aaL
8ff#J
8eeL
8aaJ
=
4.ff#
8ee
8ff#L
8aaJ
8aaL
8ff#J
=
4.ee
8ff#
8eeL
8cc#J
8aL
8bJ
=
4cc#
4b
4b
8cc#L
8eeJ
!!linebreak:original
=
4.aa
8aa
8aaL
8ff#J
8eeL
8aaJ
=
8ff#L
8eeJ
8cc#L
8eeJ
8ff#L
8aaJ
8aaL
8ff#J
=
4.ee
8ff#
8eeL
8cc#J
8aL
8cc#J
=
4b
4a
4a
4ryy
=||
*-
